src/icons/svg/sendgrid.svg

<svg width="24" height="24" viewBox="0 0 24 24" fill="none" xmlns="http://www.w3.org/2000/svg">
<path fill-rule="evenodd" clip-rule="evenodd" d="M20.9067 3.57748C20.7474 3.23637 20.4013 3 20.0001 3L16 3C15.9965 3 15.9931 3.00002 15.9896 3.00005H10C9.44772 3.00005 9 3.44777 9 4.00005V8.00009C9 8.55237 9.44772 9.00009 10 9.00009H14.5C14.7762 9.00009 15 9.22395 15 9.50009V14.0001C15 14.5524 15.4477 15.0001 16 15.0001L20.0001 15.0001C20.5523 15.0001 21.0001 14.5524 21.0001 14.0001L21.0001 8.00607C21.0001 8.00408 21.0001 8.00208 21.0001 8.00009V4.00005C21.0001 3.931 20.9931 3.86358 20.9797 3.79847C20.9639 3.72118 20.9392 3.64715 20.9067 3.57748Z" fill="#414146"/>
<path fill-rule="evenodd" clip-rule="evenodd" d="M3.09333 20.4225C3.25257 20.7636 3.59866 21 3.99995 21L7.99998 21C8.00345 21 8.00692 21 8.01038 20.9999H14C14.5523 20.9999 15 20.5522 15 19.9999V15.9999C15 15.4476 14.5523 14.9999 14 14.9999H9.49998C9.22384 14.9999 8.99998 14.7761 8.99998 14.4999V9.99993C8.99998 9.44765 8.55227 8.99993 7.99998 8.99993L3.99995 8.99993C3.44766 8.99993 2.99995 9.44765 2.99995 9.99993L2.99995 15.9939C2.99994 15.9959 2.99993 15.9979 2.99993 15.9999V19.9999C2.99993 20.069 3.00694 20.1364 3.02026 20.2015C3.03608 20.2788 3.06081 20.3529 3.09333 20.4225Z" fill="#414146"/>
</svg>

<svg xmlns="http://www.w3.org/2000/svg" width="24" height="24" fill="none"><path fill="#414146" fill-rule="evenodd" d="M20.907 3.577A1 1 0 0 0 20 3H10a1 1 0 0 0-1 1v4a1 1 0 0 0 1 1h4.5a.5.5 0 0 1 .5.5V14a1 1 0 0 0 1 1h4a1 1 0 0 0 1-1V4a1 1 0 0 0-.093-.423M3.093 20.423A1 1 0 0 0 4 21h10a1 1 0 0 0 1-1v-4a1 1 0 0 0-1-1H9.5a.5.5 0 0 1-.5-.5V10a1 1 0 0 0-1-1H4a1 1 0 0 0-1 1v10a1 1 0 0 0 .093.422" clip-rule="evenodd"/></svg>
